static/icons/findHome.svg

<svg xmlns="http://www.w3.org/2000/svg" xmlns:xlink="http://www.w3.org/1999/xlink" viewBox="0 0 500 500" width="500" height="500" preserveAspectRatio="xMidYMid meet" style="width: 100%; height: 100%; transform: translate3d(0px, 0px, 0px); content-visibility: visible;"><defs><clipPath id="__lottie_element_56"><rect width="500" height="500" x="0" y="0"></rect></clipPath><g id="__lottie_element_60"><g transform="matrix(-2.208087205886841,6.642616271972656,-6.642616271972656,-2.208087205886841,235.43490600585938,275.6480407714844)" opacity="1" style="display: block;"><g opacity="1" transform="matrix(1,0,0,1,0,0)"><path fill="rgb(13,165,232)" fill-opacity="1" d=" M15.0649995803833,10.564000129699707 C15.0649995803833,10.564000129699707 6.389999866485596,1.9800000190734863 6.389999866485596,1.9800000190734863 C7.408999919891357,0.21699999272823334 8.00100040435791,-1.8209999799728394 8.00100040435791,-3.999000072479248 C8.00100040435791,-10.616000175476074 2.617000102996826,-15.99899959564209 -3.999000072479248,-15.99899959564209 C-10.616000175476074,-15.99899959564209 -15.99899959564209,-10.616000175476074 -15.99899959564209,-3.999000072479248 C-15.99899959564209,2.617000102996826 -10.616000175476074,8.00100040435791 -3.999000072479248,8.00100040435791 C-1.8209999799728394,8.00100040435791 0.21699999272823334,7.408999919891357 1.9800000190734863,6.389999866485596 C1.9800000190734863,6.389999866485596 10.567000389099121,15.067999839782715 10.567000389099121,15.067999839782715 C11.187000274658203,15.687999725341797 12.003000259399414,15.99899959564209 12.817999839782715,15.99899959564209 C13.631999969482422,15.99899959564209 14.447999954223633,15.687999725341797 15.067999839782715,15.067999839782715 C16.30900001525879,13.82699966430664 16.309999465942383,11.809000015258789 15.0649995803833,10.564000129699707z"></path></g></g></g><g id="__lottie_element_66"><g transform="matrix(-0.3680218756198883,1.1071248054504395,-1.1071248054504395,-0.3680218756198883,263.86273193359375,290.0106201171875)" opacity="1" style="display: block;"><g opacity="1" transform="matrix(1,0,0,1,-28.125,2.125)"><path fill="rgb(255,255,255)" fill-opacity="1" d=" M0,-42.375 C23.386762619018555,-42.375 42.375,-23.386762619018555 42.375,0 C42.375,23.386762619018555 23.386762619018555,42.375 0,42.375 C-23.386762619018555,42.375 -42.375,23.386762619018555 -42.375,0 C-42.375,-23.386762619018555 -23.386762619018555,-42.375 0,-42.375z"></path><path stroke-linecap="butt" stroke-linejoin="miter" fill-opacity="0" stroke-miterlimit="4" stroke="rgb(0,0,0)" stroke-opacity="1" stroke-width="0" d=" M0,-42.375 C23.386762619018555,-42.375 42.375,-23.386762619018555 42.375,0 C42.375,23.386762619018555 23.386762619018555,42.375 0,42.375 C-23.386762619018555,42.375 -42.375,23.386762619018555 -42.375,0 C-42.375,-23.386762619018555 -23.386762619018555,-42.375 0,-42.375z"></path></g></g></g><mask id="__lottie_element_66_1" mask-type="alpha"><use xlink:href="#__lottie_element_66"></use></mask><filter id="__lottie_element_75" filterUnits="objectBoundingBox" x="0%" y="0%" width="100%" height="100%"><feComponentTransfer in="SourceGraphic"><feFuncA type="table" tableValues="1.0 0.0"></feFuncA></feComponentTransfer></filter><mask id="__lottie_element_60_2" mask-type="alpha"><g filter="url(#__lottie_element_75)"><rect width="500" height="500" x="0" y="0" fill="#ffffff" opacity="0"></rect><use xlink:href="#__lottie_element_60"></use></g></mask></defs><g clip-path="url(#__lottie_element_56)"><g mask="url(#__lottie_element_60_2)" style="display: block;"><g transform="matrix(9.260000228881836,0,0,9.260000228881836,-2024.381591796875,-2895.87841796875)" opacity="1"><g opacity="1" transform="matrix(1,0,0,1,247.86700439453125,340.1789855957031)"><path fill="rgb(13,165,232)" fill-opacity="1" d=" M-0.13099999725818634,-12.109000205993652 C-0.13099999725818634,-12.109000205993652 10.531000137329102,-1.4989999532699585 10.531000137329102,-1.4989999532699585 C9.585000038146973,-1.340999960899353 8.86299991607666,-0.5170000195503235 8.86299991607666,0.4740000069141388 C8.86299991607666,0.4740000069141388 8.86299991607666,12.425999641418457 8.86299991607666,12.425999641418457 C8.86299991607666,12.444000244140625 8.862000465393066,12.460000038146973 8.859999656677246,12.473999977111816 C8.859999656677246,12.473999977111816 0.8450000286102295,12.47599983215332 0.8450000286102295,12.47599983215332 C0.8450000286102295,12.47599983215332 0.8629999756813049,14.473999977111816 0.8629999756813049,14.473999977111816 C0.8629999756813049,14.473999977111816 9.107999801635742,14.473999977111816 9.107999801635742,14.473999977111816 C10.07699966430664,14.473999977111816 10.86299991607666,13.557000160217285 10.86299991607666,12.425999641418457 C10.86299991607666,12.425999641418457 10.86299991607666,0.4740000069141388 10.86299991607666,0.4740000069141388 C10.86299991607666,0.4740000069141388 12.86299991607666,0.4740000069141388 12.86299991607666,0.4740000069141388 C13.824999809265137,0.4740000069141388 14.229999542236328,-0.7749999761581421 13.482999801635742,-1.3819999694824219 C13.482999801635742,-1.3819999694824219 0.5640000104904175,-14.23900032043457 0.5640000104904175,-14.23900032043457 C0.46700000762939453,-14.333000183105469 0.35600000619888306,-14.402000427246094 0.23800000548362732,-14.449000358581543 C0.19599999487400055,-14.46500015258789 0.15199999511241913,-14.463000297546387 0.10899999737739563,-14.473999977111816 C0.10899999737739563,-14.473999977111816 -0.10899999737739563,-14.473999977111816 -0.10899999737739563,-14.473999977111816 C-0.15199999511241913,-14.463000297546387 -0.19599999487400055,-14.46500015258789 -0.23800000548362732,-14.449000358581543 C-0.35600000619888306,-14.402000427246094 -0.46700000762939453,-14.333000183105469 -0.5640000104904175,-14.23900032043457 C-0.5640000104904175,-14.23900032043457 -13.482999801635742,-1.3819999694824219 -13.482999801635742,-1.3819999694824219 C-14.229999542236328,-0.7749999761581421 -13.824999809265137,0.4740000069141388 -12.86299991607666,0.4740000069141388 C-12.86299991607666,0.4740000069141388 -10.86299991607666,0.4740000069141388 -10.86299991607666,0.4740000069141388 C-10.86299991607666,0.4740000069141388 -10.86299991607666,12.425999641418457 -10.86299991607666,12.425999641418457 C-10.86299991607666,13.557000160217285 -10.07699966430664,14.473999977111816 -9.107999801635742,14.473999977111816 C-9.107999801635742,14.473999977111816 1.1959999799728394,14.473999977111816 1.1959999799728394,14.473999977111816 C1.1959999799728394,14.473999977111816 1.215000033378601,12.47599983215332 1.215000033378601,12.47599983215332 C1.215000033378601,12.47599983215332 -8.859999656677246,12.473999977111816 -8.859999656677246,12.473999977111816 C-8.862000465393066,12.460000038146973 -8.86299991607666,12.444000244140625 -8.86299991607666,12.425999641418457 C-8.86299991607666,12.425999641418457 -8.86299991607666,0.4740000069141388 -8.86299991607666,0.4740000069141388 C-8.86299991607666,-0.5170000195503235 -9.585000038146973,-1.340999960899353 -10.531000137329102,-1.4989999532699585 C-10.531000137329102,-1.4989999532699585 0.13099999725818634,-12.109000205993652 0.13099999725818634,-12.109000205993652"></path></g><g opacity="1" transform="matrix(1,0,0,1,248.0030059814453,333.6520080566406)"><path fill="rgb(13,165,232)" fill-opacity="1" d=" M-2,0 C-2,1.1050000190734863 -1.1050000190734863,2 0,2 C1.1050000190734863,2 2,1.1050000190734863 2,0 C2,-1.1050000190734863 1.1050000190734863,-2 0,-2 C-1.1050000190734863,-2 -2,-1.1050000190734863 -2,0z"></path></g><g opacity="1" transform="matrix(1,0,0,1,243.0030059814453,348.1520080566406)"><path fill="rgb(13,165,232)" fill-opacity="1" d=" M-1,-2.5 C-1,-3.052999973297119 -1.4470000267028809,-3.5 -2,-3.5 C-2.552999973297119,-3.5 -3,-3.052999973297119 -3,-2.5 C-3,-2.5 -3,2.5 -3,2.5 C-3,3.052999973297119 -2.552999973297119,3.5 -2,3.5 C-2,3.5 3,3.5 3,3.5 C3,3.5 3,1.5 3,1.5 C3,1.5 -1,1.5 -1,1.5 C-1,1.5 -1,-2.5 -1,-2.5z"></path></g><g opacity="1" transform="matrix(1,0,0,1,241.0030059814453,341.6520080566406)"><path fill="rgb(13,165,232)" fill-opacity="1" d=" M0,-2 C-0.5529999732971191,-2 -1,-1.5529999732971191 -1,-1 C-1,-1 -1,1 -1,1 C-1,1.5529999732971191 -0.5529999732971191,2 0,2 C0.5529999732971191,2 1,1.5529999732971191 1,1 C1,1 1,-1 1,-1 C1,-1.5529999732971191 0.5529999732971191,-2 0,-2z"></path></g></g></g><g mask="url(#__lottie_element_66_1)" style="display: block;"><g transform="matrix(9.260000228881836,0,0,9.260000228881836,-2024.381591796875,-2895.87841796875)" opacity="1"><g opacity="1" transform="matrix(1,0,0,1,247.86700439453125,340.1789855957031)"><path fill="rgb(43,64,73)" fill-opacity="1" d=" M-0.13099999725818634,-12.109000205993652 C-0.13099999725818634,-12.109000205993652 10.531000137329102,-1.4989999532699585 10.531000137329102,-1.4989999532699585 C9.585000038146973,-1.340999960899353 8.86299991607666,-0.5170000195503235 8.86299991607666,0.4740000069141388 C8.86299991607666,0.4740000069141388 8.86299991607666,12.425999641418457 8.86299991607666,12.425999641418457 C8.86299991607666,12.444000244140625 8.862000465393066,12.460000038146973 8.859999656677246,12.473999977111816 C8.859999656677246,12.473999977111816 0.8450000286102295,12.47599983215332 0.8450000286102295,12.47599983215332 C0.8450000286102295,12.47599983215332 0.8629999756813049,14.473999977111816 0.8629999756813049,14.473999977111816 C0.8629999756813049,14.473999977111816 9.107999801635742,14.473999977111816 9.107999801635742,14.473999977111816 C10.07699966430664,14.473999977111816 10.86299991607666,13.557000160217285 10.86299991607666,12.425999641418457 C10.86299991607666,12.425999641418457 10.86299991607666,0.4740000069141388 10.86299991607666,0.4740000069141388 C10.86299991607666,0.4740000069141388 12.86299991607666,0.4740000069141388 12.86299991607666,0.4740000069141388 C13.824999809265137,0.4740000069141388 14.229999542236328,-0.7749999761581421 13.482999801635742,-1.3819999694824219 C13.482999801635742,-1.3819999694824219 0.5640000104904175,-14.23900032043457 0.5640000104904175,-14.23900032043457 C0.46700000762939453,-14.333000183105469 0.35600000619888306,-14.402000427246094 0.23800000548362732,-14.449000358581543 C0.19599999487400055,-14.46500015258789 0.15199999511241913,-14.463000297546387 0.10899999737739563,-14.473999977111816 C0.10899999737739563,-14.473999977111816 -0.10899999737739563,-14.473999977111816 -0.10899999737739563,-14.473999977111816 C-0.15199999511241913,-14.463000297546387 -0.19599999487400055,-14.46500015258789 -0.23800000548362732,-14.449000358581543 C-0.35600000619888306,-14.402000427246094 -0.46700000762939453,-14.333000183105469 -0.5640000104904175,-14.23900032043457 C-0.5640000104904175,-14.23900032043457 -13.482999801635742,-1.3819999694824219 -13.482999801635742,-1.3819999694824219 C-14.229999542236328,-0.7749999761581421 -13.824999809265137,0.4740000069141388 -12.86299991607666,0.4740000069141388 C-12.86299991607666,0.4740000069141388 -10.86299991607666,0.4740000069141388 -10.86299991607666,0.4740000069141388 C-10.86299991607666,0.4740000069141388 -10.86299991607666,12.425999641418457 -10.86299991607666,12.425999641418457 C-10.86299991607666,13.557000160217285 -10.07699966430664,14.473999977111816 -9.107999801635742,14.473999977111816 C-9.107999801635742,14.473999977111816 1.1959999799728394,14.473999977111816 1.1959999799728394,14.473999977111816 C1.1959999799728394,14.473999977111816 1.215000033378601,12.47599983215332 1.215000033378601,12.47599983215332 C1.215000033378601,12.47599983215332 -8.859999656677246,12.473999977111816 -8.859999656677246,12.473999977111816 C-8.862000465393066,12.460000038146973 -8.86299991607666,12.444000244140625 -8.86299991607666,12.425999641418457 C-8.86299991607666,12.425999641418457 -8.86299991607666,0.4740000069141388 -8.86299991607666,0.4740000069141388 C-8.86299991607666,-0.5170000195503235 -9.585000038146973,-1.340999960899353 -10.531000137329102,-1.4989999532699585 C-10.531000137329102,-1.4989999532699585 0.13099999725818634,-12.109000205993652 0.13099999725818634,-12.109000205993652"></path></g><g opacity="1" transform="matrix(1,0,0,1,248.0030059814453,333.6520080566406)"><path fill="rgb(43,64,73)" fill-opacity="1" d=" M-2,0 C-2,1.1050000190734863 -1.1050000190734863,2 0,2 C1.1050000190734863,2 2,1.1050000190734863 2,0 C2,-1.1050000190734863 1.1050000190734863,-2 0,-2 C-1.1050000190734863,-2 -2,-1.1050000190734863 -2,0z"></path></g><g opacity="1" transform="matrix(1,0,0,1,243.0030059814453,348.1520080566406)"><path fill="rgb(43,64,73)" fill-opacity="1" d=" M-1,-2.5 C-1,-3.052999973297119 -1.4470000267028809,-3.5 -2,-3.5 C-2.552999973297119,-3.5 -3,-3.052999973297119 -3,-2.5 C-3,-2.5 -3,2.5 -3,2.5 C-3,3.052999973297119 -2.552999973297119,3.5 -2,3.5 C-2,3.5 3,3.5 3,3.5 C3,3.5 3,1.5 3,1.5 C3,1.5 -1,1.5 -1,1.5 C-1,1.5 -1,-2.5 -1,-2.5z"></path></g><g opacity="1" transform="matrix(1,0,0,1,241.0030059814453,341.6520080566406)"><path fill="rgb(43,64,73)" fill-opacity="1" d=" M0,-2 C-0.5529999732971191,-2 -1,-1.5529999732971191 -1,-1 C-1,-1 -1,1 -1,1 C-1,1.5529999732971191 -0.5529999732971191,2 0,2 C0.5529999732971191,2 1,1.5529999732971191 1,1 C1,1 1,-1 1,-1 C1,-1.5529999732971191 0.5529999732971191,-2 0,-2z"></path></g></g></g><g transform="matrix(-0.3680218756198883,1.1071248054504395,-1.1071248054504395,-0.3680218756198883,263.86273193359375,290.0106201171875)" opacity="0.2" style="display: block;"><g opacity="1" transform="matrix(1,0,0,1,-28.125,2.125)"><path fill="rgb(255,255,255)" fill-opacity="1" d=" M0,-42.375 C23.386762619018555,-42.375 42.375,-23.386762619018555 42.375,0 C42.375,23.386762619018555 23.386762619018555,42.375 0,42.375 C-23.386762619018555,42.375 -42.375,23.386762619018555 -42.375,0 C-42.375,-23.386762619018555 -23.386762619018555,-42.375 0,-42.375z"></path><path stroke-linecap="butt" stroke-linejoin="miter" fill-opacity="0" stroke-miterlimit="4" stroke="rgb(0,0,0)" stroke-opacity="1" stroke-width="0" d=" M0,-42.375 C23.386762619018555,-42.375 42.375,-23.386762619018555 42.375,0 C42.375,23.386762619018555 23.386762619018555,42.375 0,42.375 C-23.386762619018555,42.375 -42.375,23.386762619018555 -42.375,0 C-42.375,-23.386762619018555 -23.386762619018555,-42.375 0,-42.375z"></path></g></g><g transform="matrix(-2.208087205886841,6.642616271972656,-6.642616271972656,-2.208087205886841,235.43490600585938,275.6480407714844)" opacity="1" style="display: block;"><g opacity="1" transform="matrix(1,0,0,1,0,0)"><path fill="rgb(42,64,74)" fill-opacity="1" d=" M-3.999000072479248,-12.99899959564209 C-8.961000442504883,-12.99899959564209 -12.99899959564209,-8.961999893188477 -12.99899959564209,-3.999000072479248 C-12.99899959564209,0.9629999995231628 -8.961000442504883,5.000999927520752 -3.999000072479248,5.000999927520752 C0.9629999995231628,5.000999927520752 5.000999927520752,0.9629999995231628 5.000999927520752,-3.999000072479248 C5.000999927520752,-8.961999893188477 0.9629999995231628,-12.99899959564209 -3.999000072479248,-12.99899959564209z M-3.999000072479248,3.000999927520752 C-7.859000205993652,3.000999927520752 -10.99899959564209,-0.13899999856948853 -10.99899959564209,-3.999000072479248 C-10.99899959564209,-7.859000205993652 -7.859000205993652,-10.99899959564209 -3.999000072479248,-10.99899959564209 C-0.13899999856948853,-10.99899959564209 3.000999927520752,-7.859000205993652 3.000999927520752,-3.999000072479248 C3.000999927520752,-0.13899999856948853 -0.13899999856948853,3.000999927520752 -3.999000072479248,3.000999927520752z M-6.199999809265137,-8.597999572753906 C-5.868000030517578,-8.156999588012695 -5.955999851226807,-7.5289998054504395 -6.396999835968018,-7.197000026702881 C-7.414999961853027,-6.432000160217285 -7.999000072479248,-5.265999794006348 -7.999000072479248,-3.999000072479248 C-7.999000072479248,-3.447000026702881 -8.446000099182129,-2.999000072479248 -8.99899959564209,-2.999000072479248 C-9.552000045776367,-2.999000072479248 -9.99899959564209,-3.447000026702881 -9.99899959564209,-3.999000072479248 C-9.99899959564209,-5.873000144958496 -9.102999687194824,-7.665999889373779 -7.60099983215332,-8.795999526977539 C-7.1579999923706055,-9.126999855041504 -6.531000137329102,-9.038999557495117 -6.199999809265137,-8.597999572753906z M15.0649995803833,10.564000129699707 C15.0649995803833,10.564000129699707 6.389999866485596,1.9800000190734863 6.389999866485596,1.9800000190734863 C7.408999919891357,0.21699999272823334 8.00100040435791,-1.8209999799728394 8.00100040435791,-3.999000072479248 C8.00100040435791,-10.616000175476074 2.617000102996826,-15.99899959564209 -3.999000072479248,-15.99899959564209 C-10.616000175476074,-15.99899959564209 -15.99899959564209,-10.616000175476074 -15.99899959564209,-3.999000072479248 C-15.99899959564209,2.617000102996826 -10.616000175476074,8.00100040435791 -3.999000072479248,8.00100040435791 C-1.8209999799728394,8.00100040435791 0.21699999272823334,7.408999919891357 1.9800000190734863,6.389999866485596 C1.9800000190734863,6.389999866485596 10.567000389099121,15.067999839782715 10.567000389099121,15.067999839782715 C11.187000274658203,15.687999725341797 12.003000259399414,15.99899959564209 12.817999839782715,15.99899959564209 C13.631999969482422,15.99899959564209 14.447999954223633,15.687999725341797 15.067999839782715,15.067999839782715 C16.30900001525879,13.82699966430664 16.309999465942383,11.809000015258789 15.0649995803833,10.564000129699707z M13.800999641418457,13.434000015258789 C13.767999649047852,13.387999534606934 13.74899959564209,13.335000038146973 13.708000183105469,13.293999671936035 C13.708000183105469,13.293999671936035 7.414999961853027,7.000999927520752 7.414999961853027,7.000999927520752 C7.414999961853027,7.000999927520752 8.015000343322754,6.401000022888184 8.015000343322754,6.401000022888184 C8.015000343322754,6.401000022888184 13.654000282287598,11.980999946594238 13.654000282287598,11.980999946594238 C14.050000190734863,12.376999855041504 14.085000038146973,12.977999687194824 13.800999641418457,13.434000015258789z M-13.99899959564209,-3.999000072479248 C-13.99899959564209,-9.512999534606934 -9.512999534606934,-13.99899959564209 -3.999000072479248,-13.99899959564209 C1.5149999856948853,-13.99899959564209 6.000999927520752,-9.512999534606934 6.000999927520752,-3.999000072479248 C6.000999927520752,1.5149999856948853 1.5149999856948853,6.000999927520752 -3.999000072479248,6.000999927520752 C-9.512999534606934,6.000999927520752 -13.99899959564209,1.5149999856948853 -13.99899959564209,-3.999000072479248z M5.236999988555908,3.6519999504089355 C5.236999988555908,3.6519999504089355 6.593999862670898,4.99399995803833 6.593999862670898,4.99399995803833 C6.593999862670898,4.99399995803833 4.99399995803833,6.593999862670898 4.99399995803833,6.593999862670898 C4.99399995803833,6.593999862670898 3.6519999504089355,5.236999988555908 3.6519999504089355,5.236999988555908 C4.228000164031982,4.758999824523926 4.758999824523926,4.228000164031982 5.236999988555908,3.6519999504089355z M-2.999000072479248,-8.99899959564209 C-2.999000072479248,-8.446999549865723 -3.447000026702881,-7.999000072479248 -3.999000072479248,-7.999000072479248 C-4.551000118255615,-7.999000072479248 -4.999000072479248,-8.446999549865723 -4.999000072479248,-8.99899959564209 C-4.999000072479248,-9.550999641418457 -4.551000118255615,-9.99899959564209 -3.999000072479248,-9.99899959564209 C-3.447000026702881,-9.99899959564209 -2.999000072479248,-9.550999641418457 -2.999000072479248,-8.99899959564209z"></path></g></g></g></svg>

<svg xmlns="http://www.w3.org/2000/svg" viewBox="0 0 500 500" style="width:100%;height:100%;content-visibility:visible"><g clip-path="url(#__lottie_element_23)"><g mask="url(#__lottie_element_27_2)" fill="#0da5e8"><path d="m269.653 142.05 98.73 98.249a18.52 18.52 0 0 0-15.445 18.27v110.675l-.028.445-74.219.018.167 18.502h76.348c8.973 0 16.252-8.492 16.252-18.965V258.57h18.52c8.908 0 12.658-11.566 5.741-17.187l-119.63-119.056a9.3 9.3 0 0 0-3.019-1.944c-.389-.148-.796-.13-1.194-.232h-2.019c-.398.102-.806.084-1.194.232a9.3 9.3 0 0 0-3.02 1.944l-119.63 119.056c-6.916 5.621-3.166 17.187 5.742 17.187h18.52v110.675c0 10.473 7.278 18.965 16.251 18.965h95.415l.176-18.502-93.294-.018-.028-.445V258.57c0-9.177-6.686-16.807-15.446-18.27l98.73-98.249"/><path d="M253.606 193.74a18.52 18.52 0 1 0 37.03.009 18.52 18.52 0 0 0-37.03-.01m-37.04 111.121a9.26 9.26 0 1 0-18.52 0v46.3a9.26 9.26 0 0 0 9.26 9.26h46.3V341.9h-37.04z"/></g><path fill="#2a404a" d="M-3.999-12.999c-4.962 0-9 4.037-9 9 0 4.962 4.038 9 9 9s9-4.038 9-9c0-4.963-4.038-9-9-9m0 16c-3.86 0-7-3.14-7-7s3.14-7 7-7 7 3.14 7 7-3.14 7-7 7M-6.2-8.598a1 1 0 0 1-.197 1.401 3.97 3.97 0 0 0-1.602 3.198 1 1 0 1 1-2 0c0-1.874.896-3.667 2.398-4.797a1 1 0 0 1 1.401.198m21.265 19.162L6.39 1.98a11.9 11.9 0 0 0 1.611-5.979c0-6.617-5.384-12-12-12-6.617 0-12 5.383-12 12 0 6.616 5.383 12 12 12 2.178 0 4.216-.592 5.979-1.611l8.587 8.678c.62.62 1.436.931 2.251.931.814 0 1.63-.311 2.25-.931a3.186 3.186 0 0 0-.003-4.504m-1.264 2.87c-.033-.046-.052-.099-.093-.14L7.415 7.001l.6-.6 5.639 5.58c.396.396.431.997.147 1.453m-27.8-17.433c0-5.514 4.486-10 10-10s10 4.486 10 10-4.486 10-10 10-10-4.486-10-10M5.237 3.652l1.357 1.342-1.6 1.6-1.342-1.357a12 12 0 0 0 1.585-1.585M-2.999-8.999a1 1 0 1 1-2 0 1 1 0 0 1 2 0" transform="rotate(112.289 19.488 217.536)scale(7)" style="display:block"/></g></svg>
